X:1
L:1/8
M:6/8
K:F
""F"" c3 B2 A |""C7"" G3""Dm"" F3 |""Bb"" G3 F2 D |""F"" C3- C2 z | F3 E2 F |""C"" G3 G3 |""F"" A3""G7"" =B2 B | 
""C"" c3- c2 z |""C7"" B3 A2 G |""F"" F2 D C3 |""C7"" B3 A2 G |""F"" F2 D C3 | F3""C"" G2 G | 
""F7"" A2 A""Bb"" !fermata!B3 |""F"" c3""C7"" G2 A |""F"" F3- F2 z |]
